img/i/line-graphic.svg

<svg enable-background="new 0 0 512 512" viewBox="0 0 512 512" xmlns="http://www.w3.org/2000/svg"><g fill="#269af2"><circle cx="243.907" cy="241.3" r="28.959"/><circle cx="129.772" cy="382.228" r="28.959"/><circle cx="358.041" cy="310.884" r="28.959"/><circle cx="472.175" cy="74.321" r="28.959"/></g><path d="m500.416 444.804h-433.22v-433.22c0-6.398-5.187-11.584-11.584-11.584s-11.583 5.186-11.583 11.584v433.22h-32.445c-6.397 0-11.584 5.186-11.584 11.584s5.187 11.584 11.584 11.584h32.445v32.445c0 6.398 5.187 11.584 11.584 11.584s11.584-5.186 11.584-11.584v-32.445h433.22c6.397 0 11.584-5.186 11.584-11.584s-5.188-11.584-11.585-11.584z" fill="#11113f"/><path d="m472.173 34.906c-21.733 0-39.414 17.681-39.414 39.414 0 11.205 4.708 21.326 12.241 28.509l-81.108 169.074c-1.91-.285-3.863-.437-5.851-.437-10.011 0-19.155 3.758-26.114 9.928l-49.818-30.37c.792-3.11 1.215-6.366 1.215-9.72 0-21.733-17.681-39.415-39.414-39.415s-39.414 17.681-39.414 39.415c0 8.008 2.407 15.461 6.526 21.687l-67.752 82.198c-4.211-1.539-8.755-2.38-13.493-2.38-21.733 0-39.414 17.681-39.414 39.415 0 21.733 17.681 39.414 39.414 39.414s39.414-17.681 39.414-39.414c0-8.588-2.77-16.537-7.451-23.019l67.15-81.467c4.632 1.917 9.703 2.98 15.019 2.98 10.011 0 19.155-3.758 26.114-9.928l49.818 30.37c-.792 3.11-1.215 6.366-1.215 9.72 0 21.733 17.681 39.414 39.414 39.414 21.732 0 39.414-17.681 39.414-39.414 0-11.426-4.892-21.728-12.685-28.933l80.952-168.749c2.101.348 4.255.537 6.452.537 21.733 0 39.414-17.681 39.414-39.414s-17.681-39.415-39.414-39.415zm-342.396 363.563c-8.958 0-16.246-7.288-16.246-16.246 0-8.959 7.288-16.247 16.246-16.247s16.246 7.288 16.246 16.247c.001 8.958-7.287 16.246-16.246 16.246zm114.133-140.919c-8.958 0-16.246-7.288-16.246-16.246 0-8.959 7.288-16.247 16.246-16.247s16.246 7.288 16.246 16.247c0 8.957-7.288 16.246-16.246 16.246zm114.131 69.575c-8.958 0-16.246-7.288-16.246-16.246s7.288-16.246 16.246-16.246 16.246 7.288 16.246 16.246-7.288 16.246-16.246 16.246zm114.132-236.558c-8.958 0-16.246-7.288-16.246-16.246s7.288-16.246 16.246-16.246 16.246 7.288 16.246 16.246-7.287 16.246-16.246 16.246z" fill="#11113f"/></svg>

<?xml version="1.0" encoding="iso-8859-1"?>
<!-- Generator: Adobe Illustrator 19.0.0, SVG Export Plug-In . SVG Version: 6.00 Build 0)  -->
<svg version="1.1" id="Layer_1" xmlns="http://www.w3.org/2000/svg" xmlns:xlink="http://www.w3.org/1999/xlink" x="0px" y="0px"
	 viewBox="0 0 512 512" style="enable-background:new 0 0 512 512;" xml:space="preserve">
<g>
	<circle style="fill:#269AF2;" cx="243.907" cy="241.3" r="28.959"/>
	<circle style="fill:#269AF2;" cx="129.772" cy="382.228" r="28.959"/>
	<circle style="fill:#269AF2;" cx="358.041" cy="310.884" r="28.959"/>
	<circle style="fill:#269AF2;" cx="472.175" cy="74.321" r="28.959"/>
</g>
<g>
	<path style="fill:#11113F;" d="M500.416,444.804H67.196V11.584C67.196,5.186,62.009,0,55.612,0S44.029,5.186,44.029,11.584v433.22
		H11.584C5.187,444.804,0,449.99,0,456.388s5.187,11.584,11.584,11.584h32.445v32.445c0,6.398,5.187,11.584,11.584,11.584
		s11.584-5.186,11.584-11.584v-32.445h433.22c6.397,0,11.584-5.186,11.584-11.584S506.813,444.804,500.416,444.804z"/>
	<path style="fill:#11113F;" d="M472.173,34.906c-21.733,0-39.414,17.681-39.414,39.414c0,11.205,4.708,21.326,12.241,28.509
		l-81.108,169.074c-1.91-0.285-3.863-0.437-5.851-0.437c-10.011,0-19.155,3.758-26.114,9.928l-49.818-30.37
		c0.792-3.11,1.215-6.366,1.215-9.72c0-21.733-17.681-39.415-39.414-39.415s-39.414,17.681-39.414,39.415
		c0,8.008,2.407,15.461,6.526,21.687l-67.752,82.198c-4.211-1.539-8.755-2.38-13.493-2.38c-21.733,0-39.414,17.681-39.414,39.415
		c0,21.733,17.681,39.414,39.414,39.414s39.414-17.681,39.414-39.414c0-8.588-2.77-16.537-7.451-23.019l67.15-81.467
		c4.632,1.917,9.703,2.98,15.019,2.98c10.011,0,19.155-3.758,26.114-9.928l49.818,30.37c-0.792,3.11-1.215,6.366-1.215,9.72
		c0,21.733,17.681,39.414,39.414,39.414c21.732,0,39.414-17.681,39.414-39.414c0-11.426-4.892-21.728-12.685-28.933l80.952-168.749
		c2.101,0.348,4.255,0.537,6.452,0.537c21.733,0,39.414-17.681,39.414-39.414S493.906,34.906,472.173,34.906z M129.777,398.469
		c-8.958,0-16.246-7.288-16.246-16.246c0-8.959,7.288-16.247,16.246-16.247s16.246,7.288,16.246,16.247
		C146.024,391.181,138.736,398.469,129.777,398.469z M243.91,257.55c-8.958,0-16.246-7.288-16.246-16.246
		c0-8.959,7.288-16.247,16.246-16.247s16.246,7.288,16.246,16.247C260.156,250.261,252.868,257.55,243.91,257.55z M358.041,327.125
		c-8.958,0-16.246-7.288-16.246-16.246c0-8.958,7.288-16.246,16.246-16.246c8.958,0,16.246,7.288,16.246,16.246
		C374.287,319.837,366.999,327.125,358.041,327.125z M472.173,90.567c-8.958,0-16.246-7.288-16.246-16.246
		s7.288-16.246,16.246-16.246c8.958,0,16.246,7.288,16.246,16.246S481.132,90.567,472.173,90.567z"/>
</g>
<g>
</g>
<g>
</g>
<g>
</g>
<g>
</g>
<g>
</g>
<g>
</g>
<g>
</g>
<g>
</g>
<g>
</g>
<g>
</g>
<g>
</g>
<g>
</g>
<g>
</g>
<g>
</g>
<g>
</g>
</svg>
